images/icons/viber.svg

<svg width="20" height="19" viewBox="0 0 20 19" fill="none" xmlns="http://www.w3.org/2000/svg">
<path d="M10.7742 2C10.4891 2 10.2581 2.21952 10.2581 2.49032C10.2581 2.76112 10.4891 2.98065 10.7742 2.98065C14.1948 2.98065 16.9677 5.61494 16.9677 8.86452C16.9677 9.13531 17.1988 9.35484 17.4839 9.35484C17.7689 9.35484 18 9.13531 18 8.86452C18 5.07335 14.7649 2 10.7742 2Z" fill="#E4E5EA"/>
<path d="M4.1673 3.59966C4.45986 3.4568 4.97514 3.3844 5.27048 3.64579C5.63965 3.97253 6.20861 4.54529 6.59951 5.04502C6.9904 5.54475 7.53764 6.30588 7.61582 6.47502C7.694 6.64416 7.78086 7.24384 7.38997 7.60518C7.07726 7.89425 6.669 8.15104 6.50395 8.2433C6.35049 8.37143 6.09916 8.74764 6.32154 9.22738C6.59951 9.82706 7.19887 11.0033 8.23256 11.8798C9.26625 12.7562 10.3607 13.2175 11.047 13.3636C11.0906 13.3636 11.1467 13.3735 11.2116 13.385C11.4441 13.426 11.7906 13.4872 12.0894 13.1868C12.3951 12.8793 12.6742 12.5564 12.7756 12.4333C12.9348 12.2693 13.3975 11.9905 13.9743 12.1873C14.6953 12.4333 15.5205 12.9715 15.894 13.2252C16.1928 13.4282 16.8582 13.9095 17.1536 14.1247C17.3331 14.2554 17.6331 14.6445 17.3968 15.1549C17.1014 15.7931 15.8419 17.2 14.7127 17.2C14.2957 17.2 10.2652 16.116 6.70374 13.0561C4.42881 11.1015 2.47054 7.71025 2.13466 6.56728C2.00726 6.29563 1.8567 5.62625 2.27365 5.12191C2.6906 4.61756 3.15968 4.09169 4.1673 3.59966Z" fill="#E4E5EA"/>
<path d="M10.7742 5.92258C10.4891 5.92258 10.2581 6.14211 10.2581 6.4129C10.2581 6.6837 10.4891 6.90323 10.7742 6.90323C11.9144 6.90323 12.8387 7.78133 12.8387 8.86452C12.8387 9.13531 13.0698 9.35484 13.3548 9.35484C13.6399 9.35484 13.871 9.13531 13.871 8.86452C13.871 7.23973 12.4845 5.92258 10.7742 5.92258Z" fill="#E4E5EA"/>
<path d="M10.2581 4.45161C10.2581 4.18082 10.4891 3.96129 10.7742 3.96129C13.6247 3.96129 15.9355 6.15654 15.9355 8.86452C15.9355 9.13531 15.7044 9.35484 15.4194 9.35484C15.1343 9.35484 14.9032 9.13531 14.9032 8.86452C14.9032 6.69813 13.0546 4.94194 10.7742 4.94194C10.4891 4.94194 10.2581 4.72241 10.2581 4.45161Z" fill="#E4E5EA"/>
</svg>

<svg width="20" height="19" fill="none" xmlns="http://www.w3.org/2000/svg"><path d="M10.774 2a.504.504 0 00-.516.49c0 .271.231.49.516.49 3.42 0 6.194 2.635 6.194 5.885 0 .27.23.49.516.49.285 0 .516-.22.516-.49C18 5.073 14.765 2 10.774 2zM4.167 3.6c.293-.143.808-.216 1.103.046.37.327.939.9 1.33 1.399.39.5.938 1.26 1.016 1.43.078.17.165.769-.226 1.13a5.23 5.23 0 01-.886.638.825.825 0 00-.182.984c.278.6.877 1.776 1.91 2.653 1.034.876 2.129 1.337 2.815 1.484.044 0 .1.01.165.021.232.041.579.102.877-.198.306-.308.585-.63.687-.754a1.182 1.182 0 011.198-.246c.721.246 1.546.785 1.92 1.038.299.203.964.684 1.26.9.18.13.48.52.243 1.03-.296.638-1.555 2.045-2.684 2.045-.417 0-4.448-1.084-8.01-4.144C4.43 11.102 2.472 7.71 2.136 6.567c-.128-.271-.278-.94.139-1.445.417-.504.886-1.03 1.893-1.522zm6.607 2.323a.504.504 0 00-.516.49c0 .27.231.49.516.49 1.14 0 2.065.878 2.065 1.962 0 .27.23.49.516.49.285 0 .516-.22.516-.49 0-1.625-1.386-2.942-3.097-2.942z" fill="#E4E5EA"/><path d="M10.258 4.452c0-.271.231-.49.516-.49 2.85 0 5.162 2.195 5.162 4.903 0 .27-.232.49-.517.49a.504.504 0 01-.516-.49c0-2.167-1.848-3.923-4.129-3.923a.504.504 0 01-.516-.49z" fill="#E4E5EA"/></svg>
